X:3
T:AVANT DEUX DE JUGON
Z: Yves BELOTTEAU
Z: Yves BELOTTEAU
M:4/4
L:1/4
Q:1/4=60
K:G 
|GBd2 cBA2|GA/2B/2AA AG/2A/2BG|GBd2 cBA2|GA/2B/2AG FAG2|
GA/2B/2AA AG/2A/2BG|GA/2B/2AG FAGD|GAB2 A2G3/2|
